lib/healthicons/icons/outline/specialties/radiology.svg

<svg fill="none" height="48" viewBox="0 0 48 48" width="48" xmlns="http://www.w3.org/2000/svg"><g clip-rule="evenodd" fill="#333" fill-rule="evenodd"><path d="m39 8h-30c-.55229 0-1 .44772-1 1v30c0 .5523.44772 1 1 1h30c.5523 0 1-.4477 1-1v-30c0-.55229-.4477-1-1-1zm-30-2c-1.65685 0-3 1.34315-3 3v30c0 1.6569 1.34315 3 3 3h30c1.6569 0 3-1.3431 3-3v-30c0-1.65685-1.3431-3-3-3z"/><path d="m14 21c-.5523 0-1 .4477-1 1v15c0 .5523.4477 1 1 1h5c0-.593.2638-1.1266.5605-1.5402.3072-.4283.7175-.8237 1.1662-1.1615.6426-.4838 1.444-.9083 2.2733-1.1339v-3.0179h-1.8c-1.1905 0-2.3347.3978-3.2116.8255-.4324.2109-.7848.4218-1.0267.5781-.1206.078-.2127.1418-.2726.1845-.0299.0214-.0517.0373-.0649.0471l-.0131.0099c.0002-.0002.0001-.0002-.6111-.7916-.6112-.7915-.611-.7916-.6108-.7918l.0018-.0013.003-.0024.0089-.0067.0281-.0212c.0234-.0173.0559-.0412.0971-.0705.0823-.0587.1995-.1397.3477-.2355.2956-.1911.7182-.4437 1.2358-.6961 1.0231-.4991 2.4789-1.028 4.0884-1.028h1.8v-2.1465h-1.1c-.8996 0-1.7577.216-2.4064.4436-.3206.1125-.5808.2245-.7578.3069-.0883.041-.1553.0744-.198.0963-.0214.011-.0367.0191-.0455.0238l-.0071.0038c.0002-.0001.0004-.0002-.4852-.8744s-.4854-.8743-.4852-.8744l.0016-.0009.0027-.0015.0074-.004.0227-.0123c.0185-.0099.044-.0233.0759-.0397.0639-.0327.154-.0775.2672-.1302.2262-.1051.5472-.2431.9391-.3806.7763-.2724 1.8682-.5564 3.0686-.5564h1.1v-2h2v2h.8c1.0511 0 2.2154.2855 3.065.543.4359.1321.8116.2639 1.0792.363.134.0497.2417.0914.3169.1211.0377.0149.0673.0268.0881.0353l.0245.01.0072.003.0034.0014c.0002.0001.0003.0001-.3843.9232s-.3845.9231-.3844.9232l-.0032-.0014-.0164-.0066c-.0152-.0062-.0389-.0158-.0704-.0283-.063-.0249-.157-.0613-.276-.1054-.2387-.0884-.5755-.2066-.9646-.3245-.8004-.2425-1.7361-.457-2.485-.457h-.8v2.1465h1.4c1.4091 0 2.9628.5311 4.0882 1.0052.5789.2438 1.0776.4871 1.4321.6696.1776.0915.32.1682.4193.2228.0496.0273.0886.0491.1159.0645l.032.0182.0092.0052.0028.0017.001.0006c.0002.0001.0007.0004-.5005.8657s-.5011.8654-.501.8655l-.005-.0029-.0225-.0128c-.0208-.0118-.0529-.0298-.0955-.0531-.085-.0468-.2114-.1149-.3713-.1972-.3205-.1651-.7718-.3852-1.2929-.6047-1.0746-.4527-2.3209-.8483-3.3118-.8483h-1.4v2.9855c.8253.2093 1.6213.6433 2.2498 1.1232.454.3468.8692.7534 1.18 1.1886.2975.4165.5702.9589.5702 1.5562h5c.5523 0 1-.4477 1-1v-15c0-.5523-.4477-1-1-1zm12.9999 17c-.0005-.0056-.0043-.0381-.0295-.101-.0301-.0749-.0832-.174-.1681-.2928-.1713-.2398-.4347-.5082-.7664-.7614-.6765-.5166-1.4485-.8319-2.0021-.8444-.6442.0557-1.446.4001-2.1042.8956-.3273.2465-.5811.5025-.744.7295-.0805.1123-.13.2053-.1578.2753-.0259.0653-.0277.0969-.0278.0992z"/><path d="m28.5 14.5c0 2.4853-2.0147 4.5-4.5 4.5s-4.5-2.0147-4.5-4.5 2.0147-4.5 4.5-4.5 4.5 2.0147 4.5 4.5z"/></g></svg>

<svg width="48" height="48" viewBox="0 0 48 48" fill="none" xmlns="http://www.w3.org/2000/svg">
<path fill-rule="evenodd" clip-rule="evenodd" d="M39 8H9C8.44771 8 8 8.44772 8 9V39C8 39.5523 8.44772 40 9 40H39C39.5523 40 40 39.5523 40 39V9C40 8.44771 39.5523 8 39 8ZM9 6C7.34315 6 6 7.34315 6 9V39C6 40.6569 7.34315 42 9 42H39C40.6569 42 42 40.6569 42 39V9C42 7.34315 40.6569 6 39 6H9Z" fill="#333333"/>
<path fill-rule="evenodd" clip-rule="evenodd" d="M14 21C13.4477 21 13 21.4477 13 22V37C13 37.5523 13.4477 38 14 38H19C19 37.407 19.2638 36.8734 19.5605 36.4598C19.8677 36.0315 20.278 35.6361 20.7267 35.2983C21.3693 34.8145 22.1707 34.39 23 34.1644V31.1465H21.2C20.0095 31.1465 18.8653 31.5443 17.9884 31.972C17.556 32.1829 17.2036 32.3938 16.9617 32.5501C16.8411 32.6281 16.749 32.6919 16.6891 32.7346C16.6592 32.756 16.6374 32.7719 16.6242 32.7817L16.6111 32.7916C16.6113 32.7914 16.6112 32.7914 16 32C15.3888 31.2085 15.389 31.2084 15.3892 31.2082L15.391 31.2069L15.394 31.2045L15.4029 31.1978L15.431 31.1766C15.4544 31.1593 15.4869 31.1354 15.5281 31.1061C15.6104 31.0474 15.7276 30.9664 15.8758 30.8706C16.1714 30.6795 16.594 30.4269 17.1116 30.1745C18.1347 29.6754 19.5905 29.1465 21.2 29.1465H23V27H21.9C21.0004 27 20.1423 27.216 19.4936 27.4436C19.173 27.5561 18.9128 27.6681 18.7358 27.7505C18.6475 27.7915 18.5805 27.8249 18.5378 27.8468C18.5164 27.8578 18.5011 27.8659 18.4923 27.8706L18.4852 27.8744C18.4854 27.8743 18.4856 27.8742 18 27C17.5144 26.1258 17.5146 26.1257 17.5148 26.1256L17.5164 26.1247L17.5191 26.1232L17.5265 26.1192L17.5492 26.1069C17.5677 26.097 17.5932 26.0836 17.6251 26.0672C17.689 26.0345 17.7791 25.9897 17.8923 25.937C18.1185 25.8319 18.4395 25.6939 18.8314 25.5564C19.6077 25.284 20.6996 25 21.9 25H23V23H25V25H25.8C26.8511 25 28.0154 25.2855 28.865 25.543C29.3009 25.6751 29.6766 25.8069 29.9442 25.906C30.0782 25.9557 30.1859 25.9974 30.2611 26.0271C30.2988 26.042 30.3284 26.0539 30.3492 26.0624L30.3737 26.0724L30.3809 26.0754L30.3843 26.0768C30.3845 26.0769 30.3846 26.0769 30 27C29.6154 27.9231 29.6155 27.9231 29.6156 27.9232L29.6124 27.9218L29.596 27.9152C29.5808 27.909 29.5571 27.8994 29.5256 27.8869C29.4626 27.862 29.3686 27.8256 29.2496 27.7815C29.0109 27.6931 28.6741 27.5749 28.285 27.457C27.4846 27.2145 26.5489 27 25.8 27H25V29.1465H26.4C27.8091 29.1465 29.3628 29.6776 30.4882 30.1517C31.0671 30.3955 31.5658 30.6388 31.9203 30.8213C32.0979 30.9128 32.2403 30.9895 32.3396 31.0441C32.3892 31.0714 32.4282 31.0932 32.4555 31.1086L32.4875 31.1268L32.4967 31.132L32.4995 31.1337L32.5005 31.1343C32.5007 31.1344 32.5012 31.1347 32 32C31.4988 32.8653 31.4989 32.8654 31.499 32.8655L31.494 32.8626L31.4715 32.8498C31.4507 32.838 31.4186 32.82 31.376 32.7967C31.291 32.7499 31.1646 32.6818 31.0047 32.5995C30.6842 32.4344 30.2329 32.2143 29.7118 31.9948C28.6372 31.5421 27.3909 31.1465 26.4 31.1465H25V34.132C25.8253 34.3413 26.6213 34.7753 27.2498 35.2552C27.7038 35.602 28.119 36.0086 28.4298 36.4438C28.7273 36.8603 29 37.4027 29 38H34C34.5523 38 35 37.5523 35 37V22C35 21.4477 34.5523 21 34 21H14ZM26.9999 38C26.9994 37.9944 26.9956 37.9619 26.9704 37.899C26.9403 37.8241 26.8872 37.725 26.8023 37.6062C26.631 37.3664 26.3676 37.098 26.0359 36.8448C25.3594 36.3282 24.5874 36.0129 24.0338 36.0004C23.3896 36.0561 22.5878 36.4005 21.9296 36.896C21.6023 37.1425 21.3485 37.3985 21.1856 37.6255C21.1051 37.7378 21.0556 37.8308 21.0278 37.9008C21.0019 37.9661 21.0001 37.9977 21 38H26.9999Z" fill="#333333"/>
<path fill-rule="evenodd" clip-rule="evenodd" d="M28.5 14.5C28.5 16.9853 26.4853 19 24 19C21.5147 19 19.5 16.9853 19.5 14.5C19.5 12.0147 21.5147 10 24 10C26.4853 10 28.5 12.0147 28.5 14.5Z" fill="#333333"/>
</svg>
